X:1
T:Do All the Good You Can
T:Do All the Good You Can
T:William Howard Doane
T:Frances Jane (Fanny) Crosby, 1905
T:Public Domain Courtesy of the Cyber Hymnal™
T:Public Domain Courtesy of the Cyber Hymnal™
C:William Howard Doane
Z:Public Domain
Z:Courtesy of the Cyber Hymnal™
%%score ( 1 2 ) 3
L:1/8
Q:1/4=90
M:4/4
K:D
V:1 treble 
V:2 treble 
V:3 bass 
V:1
 [FA][FA][DF][EG] [GB] [FA]3 | [FA][GB][EG][FA] [DF]4 | [FA][FA][DF][EG] [GB] [FA]3 | %3
w: 1.~On- ward go the sun- beams,|Shin- ing all the day;|Look- ing down up- on us,|
w: 2.~Hearts and hands to Je- sus,|Glad- ly we will give,|In the path of du- ty,|
w: 3.~With a lov- ing spir- it,|While the days are bright,|Let us work re- joic- ing,|
 [Ec][Ec][Ec][DB] [CA]4 | [EG][^DF][EG][GB] [GB] [CE]3 | [DF][EG][FA][Fd] [Fd]4 | %6
w: Now they seem to say:|Let your smile be cheer- ful,|Ev- er warm and bright,|
w: Walk- ing while we live;|Cheer- ing on the sad ones,|Lift- ing those that fall,|
w: Till the dew- y night;|Grate- ful for the bless- ings|Je- sus brought to man,|
 [Ac][GB][Bd][GB] [FA] [Fd]3 | [Gc][GA][GB][Gc] [Fd]4 ||"^Refrain" [Ac][Ac] [Ac]>[Ac] [ce]2 [Ac]2 | %9
w: Make the hearts a- round you|Hap- py with its light.||
w: Shin- ing like the sun- beams,|Do- ing good to all.||
w: Let us do for o- thers|All the good we can.||
 [^Gc][GB][EA][EG] [EA][EB] [Ec]2 | [Ac][Ac] [Ac]>[Ac] [ce]2 [Ac]2 | [Ac][AB][FA][Ac] [^GB]4 | %12
w: |||
w: |||
w: |||
 [Ac][Ac] [Ac]>[Ac] [ce]2 [Ac]2 | [^Gc][GB][EA][EG] [EA][EB] [Ec]2 | %14
w: ||
w: ||
w: ||
 [Ec][Ec] [Ec]>[Ec] [Ge] [Fd]3 | [Ec][EB][EA][E^G] A4 | [FA][FA][DF][EG] [GB] [FA]3 | %17
w: |||
w: |||
w: |||
 [DF][EG][FA][Fd] [Af]4 | [Ge][Gd][Gc][GB] [FA] [Fd]3 | [Ge][GA][GB][Gc] [Fd]4 |] %20
w: |||
w: |||
w: |||
V:2
 x8 | x8 | x8 | x8 | x8 | x8 | x8 | x8 || x8 | x8 | x8 | x8 | x8 | x8 | x8 | x4 (E2 =G2) | x8 | %17
 x8 | x8 | x8 |] %20
V:3
 [D,D][D,D][D,A,][D,A,] [D,D] [D,D]3 | [A,,D][A,,A,][A,,A,][A,,A,] [D,A,]4 | %2
w: ~ ~ ~ ~ ~ ~|~ ~ ~ ~ ~|
 [D,D][D,D][D,A,][D,A,] [D,D] [D,D]3 | [E,A,][E,A,][E,A,][E,^G,] [A,,A,]4 | %4
w: ~ ~ ~ ~ ~ ~|~ ~ ~ ~ ~|
 [A,,A,][A,,A,][A,,A,][A,,A,] [A,,A,] [A,,A,]3 | [D,A,][D,A,][D,D][D,A,] [D,A,]4 | %6
w: ~ ~ ~ ~ ~ ~|~ ~ ~ ~ ~|
 [G,,D][G,,D][G,,D][B,,D] [D,D] [D,A,]3 | [A,,A,][A,,C][A,,D][A,,E] [D,D]4 || %8
w: ~ ~ ~ ~ ~ ~|~ ~ ~ ~ ~|
 [A,E][A,E] [A,E]>[A,E] [A,E]2 [A,E]2 | [E,D][E,D][E,C][D,B,] [C,A,][B,,^G,] [A,,A,]2 | %10
w: March- ing on to- ge- ther,|Thro’ this fleet- ing world be- low,|
 [A,E][A,E] [A,E]>[A,E] [A,E]2 [A,E]2 | [F,^D][F,D][B,D][B,,D] [E,E]4 | %12
w: Help- ing one a- no- ther|On- ward as we go;|
 [A,E][A,E] [A,E]>[A,E] [A,E]2 [A,E]2 | [E,D][E,D][E,C][D,B,] [C,A,][B,,^G,] [A,,A,]2 | %14
w: Think of what a bless- ing,|God the Fa- ther gave to man,|
 [A,,A,][A,,A,] [A,,A,]>[A,,A,] [D,A,] [D,A,]3 | [E,A,][E,D][E,C][E,D] [A,,C]4 | %16
w: Try and do for o- thers|All the good you can;|
 [D,D][D,D][D,A,][D,A,] [D,D] [D,D]3 | [D,A,][D,A,][D,D][D,A,] [D,D]4 | %18
w: Let your smile be cheer- ful,|Ev- er warm and bright,|
 [G,B,][G,B,][G,C][G,D] [A,D] [A,D]3 | [A,,A,C][A,,A,C][A,,A,D][A,,A,E] [D,D]4 |] %20
w: Make the hearts a- round you|Hap- py with its light.|

